X: 4108
T: KITTY ROBERTSON
R: Reel.
%R: reel
B: James Kerr "Merry Melodies" v.4 p.14 #108
Z: 2016 John Chambers <jc:trillian.mit.edu>
M: C|
L: 1/8
K: G
uB |\
d2(gd) BGdB | Aaag fdef |\
gfgd ecdB | cAdc BGG :|\
c |\
BGDG EGDG | ABcB cedc |
BGDG EGce | dBcA BGGc |\
(B/A/G) (DG) EGDG | ABcB cedc |\
BdgB ceag | fdef gG G |]

%%sep 1 1 500
%%sep 1 1 500

